src/img/cal.svg

<svg width="12" height="14" viewBox="0 0 12 14" fill="none" xmlns="http://www.w3.org/2000/svg">
<path opacity="0.75" d="M9.34375 6.65625V8L2.65625 8V6.65625L9.34375 6.65625ZM10.6562 2C11.0312 2 11.3438 2.13542 11.5938 2.40625C11.8646 2.65625 12 2.96875 12 3.34375L12 12.6562C12 13.0312 11.8646 13.3542 11.5938 13.625C11.3438 13.875 11.0313 14 10.6563 14L1.34375 14C0.96875 14 0.645833 13.875 0.375 13.625C0.125 13.3542 0 13.0312 0 12.6562L0 3.34375C0 2.96875 0.125 2.65625 0.375 2.40625C0.645833 2.13542 0.96875 2 1.34375 2L2 2L2 0.65625L3.34375 0.65625L3.34375 2L8.65625 2V0.65625L10 0.65625V2H10.6562ZM10.6563 12.6562L10.6562 5.34375L1.34375 5.34375L1.34375 12.6562L10.6563 12.6562ZM7.34375 9.34375L7.34375 10.6562L2.65625 10.6562V9.34375L7.34375 9.34375Z" fill="white"/>
</svg>

<svg width="12" height="14" fill="none" xmlns="http://www.w3.org/2000/svg"><path opacity=".75" d="M9.344 6.656V8H2.656V6.656h6.688ZM10.656 2c.375 0 .688.135.938.406.27.25.406.563.406.938v9.312c0 .375-.135.698-.406.969-.25.25-.563.375-.938.375H1.344a1.38 1.38 0 0 1-.969-.375A1.38 1.38 0 0 1 0 12.656V3.344c0-.375.125-.688.375-.938.27-.27.594-.406.969-.406H2V.656h1.344V2h5.312V.656H10V2h.656Zm0 10.656V5.344H1.344v7.312h9.312ZM7.344 9.344v1.312H2.656V9.344h4.688Z" fill="#fff"/></svg>
